Adwaita++-Dark/actions/16/compass.svg

<svg height="16" viewBox="0 0 16 16" width="16" xmlns="http://www.w3.org/2000/svg">
  <path d="m8 1c-3.866 0-7 3.134-7 7s3.134 7 7 7 7-3.134 7-7-3.134-7-7-7zm0 2c2.7614 0 5 2.2386 5 5s-2.2386 5-5 5-5-2.2386-5-5 2.2386-5 5-5zm3.5 1.5-3.5 1.1660156c-1.2217 0-2.3339844 1.1121844-2.3339844 2.3339844l-1.1660156 3.5 3.5-1.166016c1.2217 0 2.333984-1.112284 2.333984-2.333984zm-3.5 2.3339844c.61088 0 1.1660156.5551156 1.1660156 1.1660156-.00002.6108-.5551856 1.1660156-1.1660156 1.1660156-.61085 0-1.1660156-.5552156-1.1660156-1.1660156-.00003-.6109.5551456-1.1660156 1.1660156-1.1660156z" fill="#e6ddff"/>
</svg>

<svg xmlns="http://www.w3.org/2000/svg" width="16" height="16" viewBox="0 0 16 16">
 <defs>
  <style id="current-color-scheme" type="text/css">
   .ColorScheme-Text { color:#E6DDFF; } .ColorScheme-Highlight { color:#4285f4; }
  </style>
 </defs>
 <path style="fill:currentColor" class="ColorScheme-Text" d="M 8 1 C 4.134 1 1 4.134 1 8 C 1 11.866 4.134 15 8 15 C 11.866 15 15 11.866 15 8 C 15 4.134 11.866 1 8 1 z M 8 3 C 10.7614 3 13 5.2386 13 8 C 13 10.7614 10.7614 13 8 13 C 5.2386 13 3 10.7614 3 8 C 3 5.2386 5.2386 3 8 3 z M 11.5 4.5 L 8 5.6660156 C 6.7783 5.6660156 5.6660156 6.7782 5.6660156 8 L 4.5 11.5 L 8 10.333984 C 9.2217 10.333984 10.333984 9.2217 10.333984 8 L 11.5 4.5 z M 8 6.8339844 C 8.61088 6.8339844 9.1660156 7.3891 9.1660156 8 C 9.1659956 8.6108 8.61083 9.1660156 8 9.1660156 C 7.38915 9.1660156 6.8339844 8.6108 6.8339844 8 C 6.8339544 7.3891 7.38913 6.8339844 8 6.8339844 z"/>
</svg>
